!!!OTL: Duan chroí íosa, S. 504
!!!id: I0504
**kern
*clefG2
*k[f#]
*e:
{8g
8a
=1
4b
4dd
4cc
=2
2b
4a
=3
4g
4a
4g
=4
2f#
4e
=5
[2.e
=6
4e]}
4r
=7
{8e
8f#
=8
4g
4f#
4e
=9
2g
4a
=10
2b
4cc
=11
4dd
4b
4g
=12
[2.a
=13
4a]}
4r
=14
{4a
=15
4g
4f#
4e
=16
2g
4a
=17
2b
4cc
=18
4dd
4b
4g
=19
[2.a
=20
4a]}
4r
=21
{8g
8a
=22
4b
4dd
4cc
=23
2b
4a
=24
4g
4a
4g
=25
2f#
4e
=26
[2.e
=27
4e]}
4r
==
*-
!!!minrhy: 8
!!!meters: 3/4 ]  ZZ[4
!!!cut: Duan chroí íosa, S. 504
!!!reg: Irland
!!!trd: O BOYLE, Sean: 25 Irish Folksongs, Dublin 1976
!!!rhy1: XX  X_X_X_  X__X_  X_X_X_  X__X_  X__.  ^_0_
!!!rhy2: XX  X_X_X_  X__X_  X__X_  X_X_X_  X__.  ^_0_
!!!key: I0504  08  E 3/4 ]  ZZ[4
!!!mod: HEPTATONIK AEOLISCH]  AMBITUS[7b
!!!kad: 1441
!!!akz: 553b211_3b3b57b44_3b3b57b44_553b211_
!!!fot: 'a__b__bw_a__
!!!for: 'a__b__bv_a__
!!!fok: '^d_Ma_S__^d_
!! PHRAS[AUFTAKTIG]
!!!fkt: ???
!! IRISCHE VKL.
!! PR[4] 2K[6] 2G[36] 3K[2] 3G[0] 4A[0] 4Ü[0] 5A[0] 6K[2] 6G[2]
!! 7K[2] 7G[0] 8A[0] MEHR[0] SI[50] ABS[50] SR[42] SP[8]
!! ST[8] 2k[0] 2g[30] 3k[12] 3g[2] 4d[0] 4ü[0] 5d[0] 6k[0] 6g[0]
!! 7k[0] 7g[0] 8d[2] mehr[0] si[46] dm[+4] sr[30] sp[16]
!! 1F[20] 2F[45] 3F[4] 4F[0] LF[0] 2P[12] 3P[2] 4P[0] TRI[0] DF[6] AB[51]
!! TF[0] U3K[0] U3[0] U4[0] U4Ü[0] U5[6] U6K[0] U6[2] U7K[12] U7[0]
!! N1[22] N2K[0] N2[18] N3K[0] N3[4] N4[16] N4Ü[0] N5[16] N6K[0] N6[4]
!!!n7k: 2] N7[0] O1[0] O2K[0] O2[0] O3K[0] O3[0] HÖ[0
